assets/img/icons/duotone-icons/Home/Door-open.svg

<?xml version="1.0" encoding="UTF-8"?>
<svg width="24px" height="24px" viewBox="0 0 24 24" version="1.1" xmlns="http://www.w3.org/2000/svg" xmlns:xlink="http://www.w3.org/1999/xlink">
    <!-- Generator: Sketch 52.2 (67145) - http://www.bohemiancoding.com/sketch -->
    <title>Stockholm-icons / Home / Door-open</title>
    <desc>Created with Sketch.</desc>
    <g id="Stockholm-icons-/-Home-/-Door-open" stroke="none" stroke-width="1" fill="none" fill-rule="evenodd">
        <rect id="bound" opacity="0.300000012" x="0" y="0" width="24" height="24"></rect>
        <polygon id="Path-90" fill="#335EEA" opacity="0.3" points="7 4.89473684 7 21 5 21 5 3 11 3 11 4.89473684"></polygon>
        <path d="M10.1782982,2.24743315 L18.1782982,3.6970464 C18.6540619,3.78325557 19,4.19751166 19,4.68102291 L19,19.3190064 C19,19.8025177 18.6540619,20.2167738 18.1782982,20.3029829 L10.1782982,21.7525962 C9.63486295,21.8510675 9.11449486,21.4903531 9.0160235,20.9469179 C9.00536265,20.8880837 9,20.8284119 9,20.7686197 L9,3.23140966 C9,2.67912491 9.44771525,2.23140966 10,2.23140966 C10.0597922,2.23140966 10.119464,2.2367723 10.1782982,2.24743315 Z M11.9166667,12.9060229 C12.6070226,12.9060229 13.1666667,12.2975724 13.1666667,11.5470105 C13.1666667,10.7964487 12.6070226,10.1879981 11.9166667,10.1879981 C11.2263107,10.1879981 10.6666667,10.7964487 10.6666667,11.5470105 C10.6666667,12.2975724 11.2263107,12.9060229 11.9166667,12.9060229 Z" id="Combined-Shape" fill="#335EEA"></path>
    </g>
</svg>

<svg width="24" height="24" viewBox="0 0 24 24" xmlns="http://www.w3.org/2000/svg"><g fill="none" fill-rule="evenodd"><path opacity=".3" d="M0 0h24v24H0z"/><path fill="#335EEA" opacity=".3" d="M7 4.895V21H5V3h6v1.895z"/><path d="M10.178 2.247l8 1.45a1 1 0 01.822.984v14.638a1 1 0 01-.822.984l-8 1.45A1 1 0 019 20.769V3.23a1 1 0 011.178-.984zm1.739 10.659c.69 0 1.25-.608 1.25-1.359 0-.75-.56-1.359-1.25-1.359s-1.25.608-1.25 1.359c0 .75.56 1.359 1.25 1.359z" fill="#335EEA"/></g></svg>
